dist/img/icons/coffee-cup.svg

<svg width="33" height="32" viewBox="0 0 33 32" fill="none" xmlns="http://www.w3.org/2000/svg">
<g clip-path="url(#clip0)">
<path d="M24.9304 12.666H6.26323C5.16052 12.666 4.26318 13.5633 4.26318 14.6661V15.9994C4.26318 20.7568 6.89125 25.0716 11.1207 27.2597C11.4474 27.4277 11.85 27.301 12.0194 26.973C12.1874 26.6463 12.0607 26.2436 11.7327 26.0743C7.94858 24.1169 5.59653 20.2568 5.59653 15.9993V14.666C5.59653 14.298 5.89522 13.9993 6.26323 13.9993H24.9304C25.2984 13.9993 25.5971 14.298 25.5971 14.666V15.9993C25.5971 20.2568 23.245 24.1168 19.4596 26.0729C19.1316 26.2422 19.0049 26.6449 19.1729 26.9716C19.2916 27.2009 19.5249 27.3329 19.7662 27.3329C19.8702 27.3329 19.9742 27.3089 20.0716 27.2582C24.3023 25.0715 26.9304 20.7581 26.9304 15.9993V14.6659C26.9304 13.5633 26.033 12.666 24.9304 12.666Z" fill="black"/>
<path d="M30.8812 26.4105C30.7772 26.1612 30.5345 25.9985 30.2652 25.9985H0.931196C0.661878 25.9985 0.419184 26.1612 0.315182 26.4105C0.21118 26.6599 0.268493 26.9466 0.459185 27.1372L1.95391 28.6333C2.83662 29.5146 4.00727 30 5.25398 30H25.9398C27.1865 30 28.3585 29.5147 29.2425 28.6333L30.7373 27.1372C30.9279 26.9466 30.9852 26.6599 30.8812 26.4105ZM28.2985 27.6906C27.6692 28.3199 26.8305 28.6666 25.9412 28.6666H5.25398C4.36465 28.6666 3.52594 28.3199 2.89662 27.6906L2.5393 27.3333H28.6558L28.2985 27.6906Z" fill="black"/>
<path d="M30.9746 15.8142C29.1786 14.6595 26.3092 15.9129 25.9878 16.0582C25.6531 16.2115 25.5038 16.6062 25.6571 16.9422C25.8104 17.2782 26.2038 17.4262 26.5411 17.2729C27.1838 16.9809 29.2452 16.2889 30.2532 16.9382C30.7079 17.2302 30.9305 17.7969 30.9305 18.6663C30.9305 21.3356 25.5464 22.9491 23.4677 23.3464L22.9957 23.4397C22.6343 23.5104 22.3996 23.861 22.4703 24.2224C22.533 24.5397 22.8116 24.7597 23.1237 24.7597C23.1663 24.7597 23.209 24.7557 23.253 24.7464L23.721 24.6544C24.0703 24.5877 32.2639 22.9811 32.2639 18.6663C32.2639 17.3249 31.8293 16.3662 30.9746 15.8142Z" fill="black"/>
<path d="M20.7876 7.0822C21.8716 5.72748 21.8716 3.60612 20.7876 2.2514C20.5569 1.96339 20.1395 1.91539 19.8502 2.1474C19.5622 2.37809 19.5155 2.79672 19.7462 3.08473C20.4329 3.94206 20.4329 5.39147 19.7449 6.25149C18.6596 7.60621 18.6596 9.72757 19.7449 11.0823C19.8769 11.2476 20.0702 11.333 20.2662 11.333C20.4116 11.333 20.5596 11.285 20.6822 11.1863C20.9703 10.9556 21.0169 10.5356 20.7863 10.249C20.0982 9.39156 20.0982 7.94222 20.7876 7.0822Z" fill="black"/>
<path d="M16.7822 7.08214C17.8675 5.72742 17.8675 3.60606 16.7822 2.25134C16.5529 1.96333 16.1329 1.91664 15.8448 2.14733C15.5568 2.37803 15.5102 2.79804 15.7408 3.08467C16.4289 3.942 16.4289 5.39141 15.7395 6.25143C14.6555 7.60615 14.6555 9.72751 15.7395 11.0822C15.8715 11.2475 16.0649 11.3329 16.2609 11.3329C16.4062 11.3329 16.5529 11.2849 16.6769 11.1862C16.9649 10.9555 17.0116 10.5369 16.7809 10.2489C16.0942 9.3915 16.0942 7.94216 16.7822 7.08214Z" fill="black"/>
<path d="M12.7873 7.08342C13.8713 5.7287 13.8713 3.60734 12.7873 2.25262C12.558 1.96461 12.1393 1.91661 11.85 2.14862C11.5633 2.37794 11.5167 2.79795 11.746 3.08464C12.4327 3.94197 12.4327 5.39138 11.7447 6.2514C10.6593 7.60612 10.6593 9.72748 11.7447 11.0822C11.8767 11.2475 12.07 11.3329 12.266 11.3329C12.4113 11.3329 12.5593 11.2849 12.682 11.1876C12.97 10.9569 13.0167 10.5369 12.786 10.2502C12.098 9.39147 12.098 7.94344 12.7873 7.08342Z" fill="black"/>
</g>
<defs>
<clipPath id="clip0">
<rect width="32" height="32" fill="white" transform="translate(0.263916)"/>
</clipPath>
</defs>
</svg>

<svg width="33" height="32" viewBox="0 0 33 32" fill="none" xmlns="http://www.w3.org/2000/svg"><g clip-path="url(#a)" fill="#000"><path d="M24.93 12.666H6.263c-1.102 0-2 .897-2 2V16c0 4.758 2.628 9.073 6.858 11.26a.668.668 0 0 0 .612-1.185A11.305 11.305 0 0 1 5.597 16v-1.333c0-.368.298-.667.666-.667H24.93c.368 0 .667.299.667.667v1.333a11.3 11.3 0 0 1-6.137 10.074.668.668 0 0 0 .612 1.185A12.63 12.63 0 0 0 26.93 16v-1.333c0-1.103-.897-2-2-2z"/><path d="M30.881 26.41a.668.668 0 0 0-.616-.412H.931a.668.668 0 0 0-.472 1.14l1.495 1.495A4.639 4.639 0 0 0 5.254 30H25.94a4.647 4.647 0 0 0 3.302-1.367l1.495-1.496a.665.665 0 0 0 .144-.727zM28.3 27.69c-.63.63-1.468.977-2.358.977H5.254c-.89 0-1.728-.347-2.357-.976l-.358-.358h26.117l-.357.358zM30.975 15.814c-1.796-1.155-4.666.099-4.987.244a.668.668 0 0 0 .553 1.215c.643-.292 2.704-.984 3.712-.335.455.292.677.859.677 1.728 0 2.67-5.384 4.283-7.462 4.68l-.472.094a.666.666 0 1 0 .257 1.306l.468-.092c.35-.066 8.543-1.673 8.543-5.988 0-1.341-.435-2.3-1.29-2.852zM20.788 7.082c1.084-1.355 1.084-3.476 0-4.83a.666.666 0 1 0-1.041.833c.686.857.686 2.306-.002 3.166-1.085 1.355-1.085 3.477 0 4.831a.664.664 0 0 0 .937.104.666.666 0 0 0 .104-.937c-.688-.857-.688-2.307.002-3.167zM16.782 7.082c1.085-1.355 1.085-3.476 0-4.83a.666.666 0 1 0-1.041.833c.688.857.688 2.306-.002 3.166-1.084 1.355-1.084 3.477 0 4.831a.664.664 0 0 0 .938.104.666.666 0 0 0 .104-.937c-.687-.857-.687-2.307.001-3.167zM12.787 7.083c1.084-1.354 1.084-3.476 0-4.83a.667.667 0 0 0-1.041.832c.687.857.687 2.306-.001 3.166-1.086 1.355-1.086 3.476 0 4.831a.664.664 0 0 0 .937.106.666.666 0 0 0 .104-.938c-.688-.859-.688-2.307.001-3.167z"/></g><defs><clipPath id="a"><path fill="#fff" transform="translate(.264)" d="M0 0h32v32H0z"/></clipPath></defs></svg>
